images/bold.svg

<?xml version="1.0" encoding="UTF-8" standalone="no"?>
<svg width="12px" height="13px" viewBox="0 0 12 13" version="1.1" xmlns="http://www.w3.org/2000/svg" xmlns:xlink="http://www.w3.org/1999/xlink">
    <!-- Generator: Sketch 40.3 (33839) - http://www.bohemiancoding.com/sketch -->
    <title>bold</title>
    <desc>Created with Sketch.</desc>
    <defs></defs>
    <g id="Page-1" stroke="none" stroke-width="1" fill="none" fill-rule="evenodd">
        <g id="bold" fill="#000000">
            <g id="Page-1">
                <g>
                    <g id="bold">
                        <g id="Calque_1">
                            <path d="M6.2364,0 C7.8876,0 9.1764,0.297916667 10.1016,0.892666667 C11.0268,1.4885 11.49,2.37791667 11.49,3.562 C11.49,4.16325 11.3172,4.70058333 10.974,5.17291667 C10.6308,5.64633333 10.1304,6.00275 9.4752,6.24 C10.3176,6.40683333 10.9488,6.76325 11.37,7.31141667 C11.7888,7.86066667 12,8.49441667 12,9.21375 C12,10.4585 11.556,11.401 10.6704,12.0390833 C9.7836,12.6804167 8.526,13 6.9012,13 L0,13 L0,10.8333333 L1.494,10.8333333 L1.494,2.16666667 L0,2.16666667 L0,0 L1.494,0 L6.2364,0 L6.2364,0 L6.2364,0 Z M4.308,5.44591667 L6.3324,5.44591667 C7.0836,5.44591667 7.662,5.30291667 8.0664,5.01691667 C8.4708,4.73091667 8.6736,4.31491667 8.6736,3.76675 C8.6736,3.1655 8.4696,2.72241667 8.0616,2.43641667 C7.6536,2.15041667 7.0464,2.0085 6.2364,2.0085 L4.308,2.0085 L4.308,5.44591667 L4.308,5.44591667 L4.308,5.44591667 Z M4.308,7.24966667 L4.308,10.9990833 L6.9012,10.9990833 C7.6476,10.9990833 8.2152,10.8485 8.6076,10.5484167 C8.9988,10.2483333 9.1956,9.80308333 9.1956,9.21375 C9.1956,8.57783333 9.0276,8.09033333 8.6952,7.7545 C8.3604,7.41866667 7.8324,7.24966667 7.1136,7.24966667 L4.308,7.24966667 L4.308,7.24966667 L4.308,7.24966667 Z" id="Shape"></path>
                        </g>
                    </g>
                </g>
            </g>
        </g>
    </g>
</svg>

<svg width="12" height="13" xmlns="http://www.w3.org/2000/svg"><path d="M6.236 0c1.652 0 2.94.298 3.866.893.925.595 1.388 1.485 1.388 2.669 0 .601-.173 1.139-.516 1.61-.343.474-.844.83-1.499 1.068.843.167 1.474.523 1.895 1.071.419.55.63 1.183.63 1.903 0 1.245-.444 2.187-1.33 2.825-.886.641-2.144.961-3.769.961H0v-2.167h1.494V2.167H0V0h6.236zM4.308 5.446h2.024c.752 0 1.33-.143 1.734-.43.405-.285.608-.701.608-1.25 0-.6-.204-1.044-.612-1.33-.408-.286-1.016-.427-1.826-.427H4.308v3.437zm0 1.804V11h2.593c.747 0 1.314-.152 1.707-.452.39-.3.588-.745.588-1.334 0-.636-.168-1.124-.5-1.46-.336-.335-.864-.504-1.582-.504H4.308z" fill="#000" fill-rule="evenodd"/></svg>
